src/resources/icons-social-media/src/social-media/instagram-color.svg

<svg
  width="48"
  height="48"
  viewBox="0 0 48 48"
  fill="none"
  xmlns="http://www.w3.org/2000/svg"
>
<g
    id="Component type=Icons, Icon type=Social, Size=2XL_48x48px, Subject=Icon-Instagram, Style=Simple, Webtools=False"
  >
<mask
      id="mask0_1_1084667"
      style="mask-type:luminance"
      maskUnits="userSpaceOnUse"
      x="2"
      y="2"
      width="44"
      height="44"
    >
<path
        id="Clip 2"
        fill-rule="evenodd"
        clip-rule="evenodd"
        d="M2 2H46V46H2V2Z"
        fill="white"
      />
</mask>
<g mask="url(#mask0_1_1084667)">
<path
        id="Fill 1"
        fill-rule="evenodd"
        clip-rule="evenodd"
        d="M24 2C18.0252 2 17.276 2.02533 14.9294 2.13241C12.5878 2.23922 10.9885 2.6112 9.58916 3.15515C8.14247 3.71736 6.91558 4.4697 5.69245 5.69289C4.46941 6.91617 3.71715 8.1432 3.15502 9.59007C2.61113 10.9896 2.23919 12.589 2.13239 14.931C2.02533 17.2778 2 18.0271 2 24.0027C2 29.9782 2.02533 30.7275 2.13239 33.0743C2.23919 35.4162 2.61113 37.0156 3.15502 38.4152C3.71715 39.862 4.46941 41.0891 5.69245 42.3124C6.91558 43.5355 8.14247 44.2879 9.58916 44.8502C10.9885 45.394 12.5878 45.766 14.9294 45.8728C17.276 45.9799 18.0252 46.0052 24 46.0052C29.9748 46.0052 30.724 45.9799 33.0706 45.8728C35.4122 45.766 37.0115 45.394 38.4108 44.8502C39.8575 44.2879 41.0844 43.5355 42.3075 42.3124C43.5306 41.0891 44.2828 39.862 44.8451 38.4152C45.3889 37.0156 45.7608 35.4162 45.8676 33.0743C45.9747 30.7275 46 29.9782 46 24.0027C46 18.0271 45.9747 17.2778 45.8676 14.931C45.7608 12.589 45.3889 10.9896 44.8451 9.59007C44.2828 8.1432 43.5306 6.91617 42.3075 5.69289C41.0844 4.4697 39.8575 3.71736 38.4108 3.15515C37.0115 2.6112 35.4122 2.23922 33.0706 2.13241C30.724 2.02533 29.9748 2 24 2ZM24 5.96443C29.8742 5.96443 30.5701 5.98688 32.8899 6.09273C35.0349 6.19055 36.1997 6.54899 36.975 6.85031C38.0019 7.24946 38.7347 7.72624 39.5045 8.49623C40.2744 9.26613 40.7512 9.99908 41.1503 11.0261C41.4515 11.8014 41.8099 12.9664 41.9078 15.1117C42.0136 17.4318 42.036 18.1277 42.036 24.0027C42.036 29.8776 42.0136 30.5735 41.9078 32.8936C41.8099 35.0388 41.4515 36.2038 41.1503 36.9791C40.7512 38.0062 40.2744 38.7391 39.5045 39.509C38.7347 40.279 38.0019 40.7558 36.975 41.1549C36.1997 41.4562 35.0349 41.8147 32.8899 41.9125C30.5704 42.0184 29.8747 42.0408 24 42.0408C18.1253 42.0408 17.4297 42.0184 15.1101 41.9125C12.9651 41.8147 11.8003 41.4562 11.025 41.1549C9.99813 40.7558 9.26526 40.279 8.49545 39.509C7.72565 38.7391 7.24883 38.0062 6.84974 36.9791C6.54845 36.2038 6.19005 35.0388 6.09224 32.8936C5.9864 30.5735 5.96396 29.8776 5.96396 24.0027C5.96396 18.1277 5.9864 17.4318 6.09224 15.1117C6.19005 12.9664 6.54845 11.8014 6.84974 11.0261C7.24883 9.99908 7.72556 9.26613 8.49545 8.49623C9.26526 7.72624 9.99813 7.24946 11.025 6.85031C11.8003 6.54899 12.9651 6.19055 15.1101 6.09273C17.4299 5.98688 18.1258 5.96443 24 5.96443V5.96443Z"
        fill="black"
      />
<path
        id="Fill 4"
        fill-rule="evenodd"
        clip-rule="evenodd"
        d="M24.5 31.9649C20.3772 31.9649 17.0351 28.6228 17.0351 24.5C17.0351 20.3772 20.3772 17.0351 24.5 17.0351C28.6228 17.0351 31.9649 20.3772 31.9649 24.5C31.9649 28.6228 28.6228 31.9649 24.5 31.9649ZM24.5 13C18.1487 13 13 18.1487 13 24.5C13 30.8513 18.1487 36 24.5 36C30.8513 36 36 30.8513 36 24.5C36 18.1487 30.8513 13 24.5 13V13Z"
        fill="black"
      />
<path
        id="Fill 5"
        fill-rule="evenodd"
        clip-rule="evenodd"
        d="M38 12.5C38 13.8808 36.8807 15 35.5 15C34.1193 15 33 13.8808 33 12.5C33 11.1193 34.1193 10 35.5 10C36.8807 10 38 11.1193 38 12.5"
        fill="black"
      />
</g>
</g>
</svg>

<?xml version="1.0" encoding="UTF-8" ?>
<svg
  id="Layer_1"
  xmlns="http://www.w3.org/2000/svg"
  xmlns:xlink="http://www.w3.org/1999/xlink"
  viewBox="0 0 48 48"
><defs><style
    >.cls-1{mask:url(#mask);}.cls-2{fill:#0a0b09;fill-rule:evenodd;}</style><mask
      id="mask"
      x="2"
      y="2"
      width="44"
      height="44"
      maskUnits="userSpaceOnUse"
    /></defs><g
    id="Component_type_Icons_Icon_type_Social_Size_2XL_48x48px_Subject_Icon-Instagram_Style_Simple_Webtools_False"
  ><g class="cls-1"><g><path
          id="Fill_1"
          class="cls-2"
          d="M24,2c-5.97,0-6.72,.03-9.07,.13-2.34,.11-3.94,.48-5.34,1.02-1.45,.56-2.67,1.31-3.9,2.54-1.22,1.22-1.98,2.45-2.54,3.9-.54,1.4-.92,3-1.02,5.34-.11,2.35-.13,3.1-.13,9.07s.03,6.72,.13,9.07c.11,2.34,.48,3.94,1.02,5.34,.56,1.45,1.31,2.67,2.54,3.9,1.22,1.22,2.45,1.98,3.9,2.54,1.4,.54,3,.92,5.34,1.02,2.35,.11,3.1,.13,9.07,.13s6.72-.03,9.07-.13c2.34-.11,3.94-.48,5.34-1.02,1.45-.56,2.67-1.31,3.9-2.54,1.22-1.22,1.98-2.45,2.54-3.9,.54-1.4,.92-3,1.02-5.34,.11-2.35,.13-3.1,.13-9.07s-.03-6.72-.13-9.07c-.11-2.34-.48-3.94-1.02-5.34-.56-1.45-1.31-2.67-2.54-3.9-1.22-1.22-2.45-1.98-3.9-2.54-1.4-.54-3-.92-5.34-1.02-2.35-.11-3.1-.13-9.07-.13Zm0,3.96c5.87,0,6.57,.02,8.89,.13,2.15,.1,3.31,.46,4.09,.76,1.03,.4,1.76,.88,2.53,1.65,.77,.77,1.25,1.5,1.65,2.53,.3,.78,.66,1.94,.76,4.09,.11,2.32,.13,3.02,.13,8.89s-.02,6.57-.13,8.89c-.1,2.15-.46,3.31-.76,4.09-.4,1.03-.88,1.76-1.65,2.53-.77,.77-1.5,1.25-2.53,1.65-.78,.3-1.94,.66-4.09,.76-2.32,.11-3.02,.13-8.89,.13s-6.57-.02-8.89-.13c-2.14-.1-3.31-.46-4.09-.76-1.03-.4-1.76-.88-2.53-1.65-.77-.77-1.25-1.5-1.65-2.53-.3-.78-.66-1.94-.76-4.09-.11-2.32-.13-3.02-.13-8.89s.02-6.57,.13-8.89c.1-2.15,.46-3.31,.76-4.09,.4-1.03,.88-1.76,1.65-2.53,.77-.77,1.5-1.25,2.53-1.65,.78-.3,1.94-.66,4.09-.76,2.32-.11,3.02-.13,8.89-.13Z"
        /><path
          id="Fill_4"
          class="cls-2"
          d="M24.5,31.96c-4.12,0-7.46-3.34-7.46-7.46s3.34-7.46,7.46-7.46,7.46,3.34,7.46,7.46-3.34,7.46-7.46,7.46Zm0-18.96c-6.35,0-11.5,5.15-11.5,11.5s5.15,11.5,11.5,11.5,11.5-5.15,11.5-11.5-5.15-11.5-11.5-11.5Z"
        /><path
          id="Fill_5"
          class="cls-2"
          d="M38,12.5c0,1.38-1.12,2.5-2.5,2.5s-2.5-1.12-2.5-2.5,1.12-2.5,2.5-2.5,2.5,1.12,2.5,2.5Z"
        /></g></g></g></svg>
